X: 1
T: Milozewick's Jail
R: jig
C: P.Commes
I: july 2001
Q: 1/4=163
S: pierre.commes:libertysurf.fr tradtunes 2001-7-4
%V:1 0 2200 :
M: 6/8
L: 1/8
K: D
~D3 FED |EFE ~A3 |FAd cAF |DEF GEA |
~D3 FED |EFE ~A3 |FAF AdF |GEA ~D3 :|
|: ~d3 AFA |d3 AFA |B3 BAF |DEF DEF |
~d3 AFA |d3 AFA |FAF AdF |GEA D3 :|
